<?xml version="1.0" encoding="UTF-8"?>
<map version="1.10" tiledversion="1.12.2" orientation="orthogonal" renderorder="right-down" width="30" height="20" tilewidth="32" tileheight="32" infinite="0" nextlayerid="4" nextobjectid="1">
 <tileset firstgid="1" name="TileSet_V1" tilewidth="32" tileheight="32" tilecount="112" columns="8">
  <image source="../TileSet_V1.png" width="256" height="448"/>
 </tileset>
 <tileset firstgid="113" name="TX" tilewidth="1" tileheight="1" tilecount="0" columns="0"/>
 <tileset firstgid="113" name="TX Tileset Wall" tilewidth="32" tileheight="32" tilecount="256" columns="16">
  <image source="../Pixel Art Top Down - Basic v1.2.3/Texture/TX Tileset Wall.png" width="512" height="512"/>
 </tileset>
 <tileset firstgid="369" name="TX Tileset Stone Ground" tilewidth="32" tileheight="32" tilecount="64" columns="8">
  <image source="../Pixel Art Top Down - Basic v1.2.3/Texture/TX Tileset Stone Ground.png" width="256" height="256"/>
 </tileset>
 <tileset firstgid="433" name="TX Tileset Grass" tilewidth="32" tileheight="32" tilecount="64" columns="8">
  <image source="../Pixel Art Top Down - Basic v1.2.3/Texture/TX Tileset Grass.png" width="256" height="256"/>
 </tileset>
 <tileset firstgid="497" name="TX Struct" tilewidth="32" tileheight="32" tilecount="256" columns="16">
  <image source="../Pixel Art Top Down - Basic v1.2.3/Texture/TX Struct.png" width="512" height="512"/>
 </tileset>
 <tileset firstgid="753" name="TX Props" tilewidth="32" tileheight="32" tilecount="256" columns="16">
  <image source="../Pixel Art Top Down - Basic v1.2.3/Texture/TX Props.png" width="512" height="512"/>
 </tileset>
 <tileset firstgid="1009" name="TX Plant" tilewidth="32" tileheight="32" tilecount="256" columns="16">
  <image source="../Pixel Art Top Down - Basic v1.2.3/Texture/TX Plant.png" width="512" height="512"/>
 </tileset>
 <layer id="1" name="Camada de Blocos 1" width="30" height="20">
  <data encoding="csv">
369,370,370,370,370,370,370,370,370,371,455,456,437,438,439,440,437,438,439,465,466,465,433,434,445,436,439,440,465,465,
377,378,378,378,378,378,378,378,378,379,439,440,445,446,447,448,445,446,465,474,466,465,453,454,443,444,439,440,465,465,
377,378,378,378,378,378,378,378,378,379,447,448,453,454,455,456,453,465,465,465,466,465,461,462,451,462,447,448,465,465,
385,386,378,386,386,386,386,386,386,387,455,456,461,462,463,464,465,465,463,474,466,465,457,458,459,460,459,460,465,465,
437,438,439,440,437,438,439,440,461,462,463,464,437,438,439,465,465,438,439,465,466,465,449,450,449,450,451,452,465,465,
445,446,447,448,445,446,447,448,437,438,439,440,445,446,474,474,445,446,447,491,466,465,457,458,457,458,459,460,465,465,
453,454,455,456,453,454,455,456,445,446,447,448,453,465,474,456,453,454,455,465,466,465,465,465,465,465,465,465,465,466,
461,462,463,464,461,462,463,464,453,454,455,456,465,474,463,464,461,462,463,474,466,465,465,465,465,465,465,465,473,474,
437,438,439,440,437,438,439,440,461,462,463,474,465,438,439,440,437,438,439,465,466,465,465,465,465,465,465,465,481,482,
445,446,447,448,445,446,447,448,437,438,474,474,445,446,447,448,445,446,447,494,465,474,465,479,480,465,465,465,489,490,
437,438,439,440,453,454,455,456,445,465,465,448,453,454,455,456,453,454,455,456,453,454,455,456,453,454,455,456,453,454,
445,446,447,448,461,462,463,464,474,474,455,456,461,462,463,464,461,462,463,464,461,462,463,464,461,462,463,464,461,462,
453,454,455,456,437,438,439,465,465,462,463,464,437,438,439,440,437,438,439,440,437,438,439,440,437,438,439,440,437,438,
461,462,463,464,445,446,465,465,445,446,447,448,445,446,447,448,445,446,447,448,445,446,447,448,445,446,447,448,445,446,
437,438,439,440,453,465,474,456,453,454,455,456,453,454,455,456,453,454,455,456,453,454,455,456,453,454,455,456,453,454,
445,446,447,448,465,474,463,464,461,462,463,464,461,462,463,464,461,462,463,464,461,462,463,464,461,462,463,464,461,462,
453,454,455,474,465,446,447,448,445,446,447,448,445,446,447,448,445,446,447,445,446,447,448,445,446,447,448,445,446,447,
461,462,465,474,453,454,455,456,453,454,455,456,453,454,455,456,453,454,455,453,454,455,456,453,454,455,456,453,454,455,
437,465,465,440,461,462,463,464,461,462,463,464,461,462,463,464,461,462,463,461,462,437,438,439,440,463,464,461,462,463,
474,474,447,448,445,446,447,448,445,446,447,448,445,446,447,445,446,447,448,445,446,445,446,447,448,447,448,445,446,447
</data>
 </layer>
 <layer id="2" name="props" width="30" height="20">
  <data encoding="csv">
130,131,131,131,131,131,131,131,131,132,1012,1013,0,0,0,0,0,0,0,0,0,0,130,141,142,142,143,132,0,0,
154,0,0,0,0,0,0,1025,0,155,0,0,0,0,0,0,0,0,0,0,0,0,154,0,0,0,0,155,0,0,
170,0,0,0,0,0,0,0,0,171,0,0,0,0,0,0,0,0,0,0,0,0,146,0,0,0,0,148,0,0,
170,0,0,0,0,0,0,0,0,171,0,0,0,0,0,0,0,0,0,0,0,0,162,163,514,515,163,164,0,0,
210,215,212,215,212,215,210,211,215,213,0,1077,0,0,0,0,0,0,0,0,0,0,178,179,530,531,179,180,0,0,
226,231,228,231,0,231,226,227,231,229,0,0,0,0,0,0,0,0,0,0,0,0,0,0,546,547,0,0,0,0,
0,0,0,0,0,0,0,0,0,0,0,0,0,0,0,0,0,0,0,0,0,0,0,0,0,0,0,0,0,0,
0,0,0,0,0,0,0,0,0,0,0,0,0,0,0,0,0,0,0,0,0,0,0,0,0,0,0,0,0,0,
0,0,0,0,0,0,0,0,0,0,0,0,0,0,0,0,0,0,0,0,0,0,0,0,0,0,0,0,0,0,
0,0,0,0,0,0,0,0,0,0,0,0,0,0,0,0,0,0,0,0,0,0,0,0,0,0,0,0,0,0,
0,0,0,0,0,0,0,0,0,0,0,0,0,0,0,0,0,0,0,0,0,0,0,0,0,0,0,0,0,0,
0,0,0,0,0,0,0,0,0,0,0,0,0,0,0,0,0,0,0,0,0,0,0,0,0,0,0,0,0,0,
0,0,0,0,0,0,0,0,0,0,0,0,0,0,0,0,0,0,0,0,0,0,0,0,0,0,0,0,0,0,
0,0,0,0,0,0,0,0,0,0,0,0,0,0,0,1089,1090,1091,1092,1093,1094,1095,1096,1097,1098,1099,1100,1101,0,0,
0,0,0,0,0,0,0,0,0,0,0,0,0,0,0,1105,1106,1107,1108,1109,1110,1111,1112,1113,1114,1115,1116,1117,0,0,
0,0,0,0,0,0,0,0,0,0,0,0,0,1009,1010,1121,1122,1123,1124,1125,1126,1127,1128,1129,1130,1131,1132,1133,1012,1013,
0,0,0,0,0,0,0,0,0,0,0,0,0,1025,1026,1027,1028,1025,1026,1027,1028,1025,1026,1027,1028,1025,1026,1027,1028,1029,
0,0,0,0,0,0,0,0,0,0,0,0,0,1041,1042,1043,1044,1041,1042,1043,1044,1041,1042,1043,1044,1041,1042,1043,1044,1045,
0,0,0,0,0,0,0,0,0,0,0,0,0,1057,1058,1059,1060,1057,1058,1059,1060,1057,1058,1059,1060,1057,1058,1059,1060,1061,
0,0,0,0,0,0,0,0,0,0,0,0,0,1073,1074,1075,1076,1073,1074,1075,1076,1073,1074,1075,1076,1073,1074,1075,1076,1077
</data>
 </layer>
 <layer id="3" name="finals" width="30" height="20">
  <data encoding="csv">
0,0,0,0,0,0,0,0,0,0,0,0,0,0,0,0,0,0,0,0,0,0,904,0,794,795,0,904,0,792,
0,0,0,0,0,0,0,0,0,0,0,0,0,0,0,0,0,0,0,0,0,0,920,0,810,811,0,920,0,808,
0,0,0,0,0,0,0,0,0,0,0,0,0,0,0,0,0,0,0,0,0,0,0,0,0,0,0,0,0,824,
0,0,0,0,0,0,0,0,0,0,0,0,0,0,0,0,0,0,0,0,0,0,0,0,0,0,0,0,0,0,
0,0,0,801,802,803,0,0,0,0,0,0,0,0,0,0,0,0,0,0,0,0,0,0,0,0,0,0,0,0,
0,0,0,817,818,819,0,0,0,0,0,0,0,0,0,0,0,0,0,0,0,0,0,0,0,0,0,0,0,0,
0,0,0,0,0,0,0,0,0,0,0,0,0,0,0,0,0,0,0,0,0,0,0,0,0,0,0,0,0,0,
0,0,0,0,0,0,0,0,0,0,0,0,0,0,0,0,0,0,0,0,0,0,0,0,0,0,0,0,0,0,
0,0,0,0,0,0,0,0,0,0,0,0,0,0,0,0,0,0,0,0,0,0,0,0,0,0,0,0,0,0,
0,0,0,0,0,0,0,0,0,0,0,0,0,0,0,0,0,0,0,0,0,0,0,0,0,0,0,0,0,0,
0,0,0,0,0,0,0,0,0,0,0,0,758,758,758,758,758,758,0,0,0,0,0,0,0,0,0,0,0,0,
0,0,0,0,0,0,0,0,0,0,0,0,774,774,774,774,774,774,0,0,0,0,0,0,0,0,0,0,0,0,
0,0,0,0,0,0,0,0,0,0,0,0,790,790,790,790,790,790,0,0,0,0,0,0,0,0,0,0,0,0,
0,0,0,0,0,0,0,0,0,0,0,0,806,806,806,806,806,806,0,0,0,0,0,0,0,0,0,0,0,0,
0,0,0,0,0,0,0,0,0,0,0,0,0,0,0,0,0,0,0,0,0,0,0,0,0,0,0,0,0,0,
0,0,0,0,0,0,0,0,822,822,822,822,0,0,0,0,0,0,0,0,0,0,0,0,0,0,0,0,0,0,
0,0,0,0,0,0,0,0,838,838,838,838,0,0,0,0,0,0,0,0,0,0,0,0,0,0,0,0,0,0,
0,0,0,0,0,0,0,0,0,0,0,0,0,0,0,0,0,0,0,0,0,0,0,0,0,0,0,0,0,0,
0,0,0,0,0,0,0,0,0,0,0,0,0,0,0,0,0,0,0,0,0,0,0,0,0,0,0,0,0,0,
0,0,0,0,0,0,0,0,0,0,0,0,0,0,0,0,0,0,0,0,0,0,0,0,0,0,0,0,0,0
</data>
 </layer>
</map>
